X:1
T:Title
%%score { ( 1 3 ) | ( 2 4 ) }
L:1/8
Q:1/4=78
M:4/4
K:G
V:1 treble nm="Grand Piano"
V:3 treble 
V:2 treble 
V:4 treble 
V:1
 BBBB [AB][AB] [AB]2 | [^GB][GB][Gc][GB] BA E2 | [Fd][Fc][A,CE][A,CF] [DFB]2 [DFA]2 | [Dd]8 | %4
w: B.~D.~Ackley * * * * * *||||
 [DGB][DGB][DGB][DGB] [^DAB][DAB] [DAB]2 | [D^GB][DGB][EGc][DGB] [^C=GB][CGA] [CE]2 | %6
w: ||
 [Fd][Fc][A,CE][A,CF] [DFB]2 [CFA]2 |[M:3/4] [B,DG]6 |[M:1/4] [B,DG]2 | %9
w: |||
[M:4/4] [A,DF][DFc][DFc][DFc] [DFc]4 | GBBB B4 | [G^c]ccc cABc | d2- [Gd-][Ed-] [Fd]2 [DAc]2 | %13
w: ||||
 BBBB B2 d2 | [Ed][Ec][Ec][Ec] [Ec]2 [Ge]2 | [DGd][DGd][DGd][EGc] [DGB]2 .[DFA]2 | [B,DG]6 z2 |] %17
w: ||||
V:2
 [G,DG][G,DG][G,DG][G,DG][K:bass] [F,^D][F,D] [F,D]2 | %1
 [E,D][E,D][E,E][E,D][K:treble] [A,^CG][A,CG][K:bass] [A,C]2 | [D,A,][D,A,]D,D, D,2 C2 | z4 A,4 | %4
 G,G,G,G, F,F, F,2 | E,E,E,E, A,A, A,2 | [D,A,][D,A,]D,D, D,2 D,2 |[M:3/4] G,6 |[M:1/4] G,2 | %9
[M:4/4] D,D,D,D, D,D,E,F, | [G,B,D][G,D][G,DG][G,DG] [G,DG]4 | %11
 [E,E][A,EG][A,EG][A,EG] [A,EG][A,^CG][A,DG][A,EG] | z2 B,G, A,2 D,2 | %13
 [G,DG][G,DG][G,DG][G,DG] [G,DG]2 [G,B,=F]2 | [C,C][C,G,][C,G,][C,G,] [C,G,]2 [C,C]2 | %15
 B,,B,,B,,C, D,2 z C | G,6 z2 |] %17
V:3
 x8 | x8 | x8 | G2 =F2 ^F4 | x8 | x8 | x8 |[M:3/4] x6 |[M:1/4] x2 |[M:4/4] x8 | x8 | x8 | %12
 [DF]2 z2 z4 | x8 | x8 | x8 | x8 |] %17
V:4
 x4[K:bass] x4 | x4[K:treble] x2[K:bass] x2 | x8 | B,2 ^G,2 z D,E,F, | x8 | x8 | x8 |[M:3/4] x6 | %8
[M:1/4] x2 |[M:4/4] x8 | x8 | x8 | D,6 z2 | x8 | x8 | z4 z2 D,2 | x8 |] %17

